X:21
T:Marchioness of Cornwallis, The
M:4/4
L:1/8
C:Wm. Marshall
R:Strathspey
K:Eb
B,/A,/|"Eb"G,<B, B,>C E2 G,E|"Eb"B,>E BE "Bb"G<F FB,/A,/|"Eb"G,<B, B,>C
E2 Ee|
"Ab"c>B AB G<E E:|!
c/d/|"Eb"e/d/c/B/ eB "Ab"cB "Eb"eB|"Bb"fB a>g gf fg|"Ab"a>g fe "Bb"ed cB
|
"Cm"e>c "Bb" BB, "Eb"CE Ec/d/|!
"Eb"eE "Ab"cE "Eb"BE GE|"Ab"a>f "Eb"g>e "Bb"df f>B,|"Ab"C<E "Bb"D<F "Eb"
E<B G<E|
"Ab"c>B AB G<E E||
